Numix-Light-GalliumOS/scalable/status/battery-full-charging-symbolic.svg

<svg xmlns="http://www.w3.org/2000/svg" viewBox="0 0 16 16">
 <path d="m 5 0 l 0 2 l -3 0 l 0 14 l 12 0 l 0 -14 l -3 0 l 0 -2 l -6 0 z m 5 3 l -1 5 l 3 0 l -6 7 l 1 -5 l -3 0 l 6 -7 z" style="fill:#353535"/>
</svg>

<svg xmlns="http://www.w3.org/2000/svg" width="16" viewBox="0 0 16 16" height="16">
 <path d="M 5 0 L 5 2 L 2 2 L 2 16 L 14 16 L 14 2 L 11 2 L 11 0 L 5 0 z M 10 3 L 9 8 L 12 8 L 6 15 L 7 10 L 4 10 L 10 3 z " fill="#353535"/>
</svg>
